docs/themes/v2/source/images/new/logo5.svg

<svg fill="none" height="56" viewBox="0 0 125 56" width="125" xmlns="http://www.w3.org/2000/svg"><path d="m99.8417 24.3271c13.5193 0 24.4583 10.9454 24.4583 24.4363 0 2.2909-.327 4.509-.909 6.6181-.084.3115-.296.6185-.614.6185h-34.5551c-.3166 0-.4033-.3661-.3166-.6458l.0161-.0454.7268-1.8545c2.0148-5.256 7.6984-9.5497 13.0308-9.882l10.083-.5907c.472-.0364.908-.3636 1.054-.8.073-.2546.036-.5818-.109-.8-.134-.2014-.361-.3408-.624-.3611l-.067-.0025-9.521-.5819c-2.363-.109-4.3251-1.0545-5.488-2.6908-1.245-1.7439-1.5499-4.08-.8469-6.6332l.0473-.1668 1.7445-6.0727c.0894-.2898.3634-.5091.6541-.5091.3998-.0364.8359-.0364 1.2357-.0364z" fill="#f0b156"/><path d="m67.1336 0c14.0281 0 25.7667 9.81813 28.6741 22.9817.0654.2618.0425.5236-.0422.7854l-.0305.0873-2.5803 6.7272c-2.0148 5.256-7.7341 9.5497-13.0319 9.882l-.1604.0089-45.1371.5818c-.4725.0364-.9086.3637-1.054.8-.0727.2909-.0363.5818.1091.8.1341.2014.3612.3408.624.3611l.0665.0025 44.7374.5819c2.3622.109 4.3247 1.0545 5.4876 2.6909 1.245 1.7438 1.5499 4.0799.8469 6.6331l-.0473.1668-.6178 2.2182c-.0954.31-.2886.6912-.5894.6912h-83.452368c-.301522 0-.40667-.3697-.454172-.6549-.109027-.909-.181711-1.8181-.181711-2.7272 0-10.2181 8.104341-18.509 18.243851-18.7999-.3634-1.4545-.4725-3.0182-.3271-4.6182.6178-6.2181 5.5967-11.1999 11.8113-11.8181 3.4888-.3272 6.7233.6909 9.2673 2.5818 3.9249-11.59991 14.9003-19.9635 27.8382-19.9635z" fill="#e6883b"/></svg>

<svg width="125" height="56" viewBox="0 0 125 56" fill="none" xmlns="http://www.w3.org/2000/svg">
<path d="M99.8417 24.3271C113.361 24.3271 124.3 35.2725 124.3 48.7634C124.3 51.0543 123.973 53.2724 123.391 55.3815C123.307 55.693 123.095 56 122.777 56H88.2219C87.9053 56 87.8186 55.6339 87.9053 55.3542L87.9214 55.3088L88.6482 53.4543C90.663 48.1983 96.3466 43.9046 101.679 43.5723L111.762 42.9816C112.234 42.9452 112.67 42.618 112.816 42.1816C112.889 41.927 112.852 41.5998 112.707 41.3816C112.573 41.1802 112.346 41.0408 112.083 41.0205L112.016 41.018L102.495 40.4361C100.132 40.3271 98.1699 39.3816 97.007 37.7453C95.762 36.0014 95.4571 33.6653 96.1601 31.1121L96.2074 30.9453L97.9519 24.8726C98.0413 24.5828 98.3153 24.3635 98.606 24.3635C99.0058 24.3271 99.4419 24.3271 99.8417 24.3271Z" fill="#F0B156"/>
<path d="M67.1336 0C81.1617 0 92.9003 9.81813 95.8077 22.9817C95.8731 23.2435 95.8502 23.5053 95.7655 23.7671L95.735 23.8544L93.1547 30.5816C91.1399 35.8376 85.4206 40.1313 80.1228 40.4636L79.9624 40.4725L34.8253 41.0543C34.3528 41.0907 33.9167 41.418 33.7713 41.8543C33.6986 42.1452 33.735 42.4361 33.8804 42.6543C34.0145 42.8557 34.2416 42.9951 34.5044 43.0154L34.5709 43.0179L79.3083 43.5998C81.6705 43.7088 83.633 44.6543 84.7959 46.2907C86.0409 48.0345 86.3458 50.3706 85.6428 52.9238L85.5955 53.0906L84.9777 55.3088C84.8823 55.6188 84.6891 56 84.3883 56H0.935932C0.63441 56 0.529262 55.6303 0.48176 55.3451C0.372733 54.4361 0.300049 53.527 0.300049 52.6179C0.300049 42.3998 8.40439 34.1089 18.5439 33.818C18.1805 32.3635 18.0714 30.7998 18.2168 29.1998C18.8346 22.9817 23.8135 17.9999 30.0281 17.3817C33.5169 17.0545 36.7514 18.0726 39.2954 19.9635C43.2203 8.36359 54.1957 0 67.1336 0Z" fill="#E6883B"/>
</svg>
